!!!OTL: Irish Labourer
!!!ONM: 123.
**kern
*clefG2
*k[b-]
*F:
*MM82
*M6/8
{8c
=1
4f
8g
4a
8g
=2
4f
8d
4c
8c
=3
8d
4f
4e
8g
=4
4f
8r}
{4r
[16f
16f]
=5
4b-
8cc
4dd
8b-
=6
4a
8b-
4cc
16a
16a
=7
4g
8f
4d
8f
=8
4g
8r}
{4r
8a
=9
4b-
8cc
4dd
8b-
=10
4a
8b-
4cc
16a
16a
=11
4g
16f
16f
4d
8f
=12
4.g
4r}
{8f
=13
4a
8g
4g
8f
=14
4d
8c
4A
16c
16c
=15
4d
8f
4e
8g
=16
[4.f
8f]
8r}
==
*-
!!!CNT: Folksongs of Maritime Canada
!!!MRD: 1928///-1932///
!!!OCL: Helen Creighton
!!!YOR: Songs and Ballads from Nova Scotia
!!!PPR: J.M. Dent & Sons, Limited
!!!PPP: Toronto, Canada
!!!PDT: 1932///
!!!reprint: Dover Publications, 1992: ISBN 0-486-21703-5
!!!ENC1: Craig Stuart Sapp (music and bibliographic data)                       
!!!ENC2: Marcus Pearce (phrase markings and key designations)                   
!!!ENC3: Darrell Conklin (phrase markings and key designations)   
!!!END: 2002/04/10/
!!!EEV: 2004/06/05
!!!MPN: Mr. Patrick Williams
!!!PPG: 266
!!!EFL: 125/152
!!!ARE: Canada; Nova Scotia
!!!verses: 4
!!!VTS: 4076507189
